src/assets/images/icon/google-plus.svg

<svg xmlns="http://www.w3.org/2000/svg"  viewBox="0 0 50 50" width="50px" height="50px"><path d="M 17.1875 10.9375 C 9.421875 10.9375 3.125 17.234375 3.125 25 C 3.125 32.765625 9.421875 39.0625 17.1875 39.0625 C 24.953125 39.0625 31.25 32.765625 31.25 25 C 31.25 24.035156 31.144531 23.09375 30.960938 22.1875 L 30.882813 21.875 L 17.1875 21.875 L 17.1875 26.5625 L 26.5625 26.5625 C 25.816406 30.996094 21.832031 34.375 17.1875 34.375 C 12.007813 34.375 7.8125 30.179688 7.8125 25 C 7.8125 19.820313 12.007813 15.625 17.1875 15.625 C 19.53125 15.625 21.667969 16.492188 23.3125 17.914063 L 26.671875 14.625 C 24.171875 12.335938 20.84375 10.9375 17.1875 10.9375 Z M 39.0625 17.1875 L 39.0625 21.875 L 34.375 21.875 L 34.375 25 L 39.0625 25 L 39.0625 29.6875 L 42.1875 29.6875 L 42.1875 25 L 46.875 25 L 46.875 21.875 L 42.1875 21.875 L 42.1875 17.1875 Z"/></svg>

<svg xmlns="http://www.w3.org/2000/svg" xmlns:xlink="http://www.w3.org/1999/xlink" viewBox="0,0,256,256" width="50px" height="50px" fill-rule="nonzero"><g fill="#c0c0c0" fill-rule="nonzero" stroke="none" stroke-width="1" stroke-linecap="butt" stroke-linejoin="miter" stroke-miterlimit="10" stroke-dasharray="" stroke-dashoffset="0" font-family="none" font-weight="none" font-size="none" text-anchor="none" style="mix-blend-mode: normal"><g transform="scale(5.12,5.12)"><path d="M17.1875,10.9375c-7.76562,0 -14.0625,6.29688 -14.0625,14.0625c0,7.76563 6.29688,14.0625 14.0625,14.0625c7.76563,0 14.0625,-6.29687 14.0625,-14.0625c0,-0.96484 -0.10547,-1.90625 -0.28906,-2.8125l-0.07812,-0.3125h-13.69531v4.6875h9.375c-0.74609,4.43359 -4.73047,7.8125 -9.375,7.8125c-5.17969,0 -9.375,-4.19531 -9.375,-9.375c0,-5.17969 4.19531,-9.375 9.375,-9.375c2.34375,0 4.48047,0.86719 6.125,2.28906l3.35938,-3.28906c-2.5,-2.28906 -5.82812,-3.6875 -9.48437,-3.6875zM39.0625,17.1875v4.6875h-4.6875v3.125h4.6875v4.6875h3.125v-4.6875h4.6875v-3.125h-4.6875v-4.6875z"></path></g></g></svg>
